X: 3
T: The Bank Of Ireland
R: reel
M: 4/4
L: 1/8
K: Dmix
|:cAAB cAAG|EGDG EGDB|cAAB cAAG|Addc d2ed:|
f2fd e2ec|d2ed cAAg|f2fd e2ec|cABc d2d2|
faa2 faa2|d2ed cAAG|Addc defg|afge d2|]


Tune 320	Setting 320

